;FLAVOR:Marlin
;TIME:26109
;Filament used: 23.7434m
;Layer height: 0.2
;MINX:101.698
;MINY:94.888
;MINZ:0.3
;MAXX:198.3
;MAXY:205.167
;MAXZ:54.9
;Generated with Cura_SteamEngine 5.4.0
M140 S60
M105
M190 S60
M104 S200
M105
M109 S200
M82 ;absolute extrusion mode
G28 ;Home
G29 ;Auto level
M420 S1
G1 Z15.0 F2000 ;Move the platform
G92 E0
G92 E0
G1 F1500 E-6.5
;LAYER_COUNT:274
;LAYER:0
M107
M204 S1000
G0 F7500 X102.943 Y121.562 Z0.3
;TYPE:SKIRT
G1 F1500 E0
G1 X103.621 Y121.048 E0.04245
G1 X104.326 Y120.627 E0.08341
G1 X147.464 Y95.719 E2.56857
G1 X148.104 Y95.363 E2.60511
G1 X148.564 Y95.152 E2.63036
G1 X149.166 Y94.975 E2.66167
G1 X149.925 Y94.888 E2.69978
G1 X150.553 Y94.925 E2.73117
G1 X151.124 Y95.042 E2.76024
G1 X151.908 Y95.373 E2.8027
G1 X152.648 Y95.785 E2.84496
G1 X195.722 Y120.654 E5.32638
G1 X196.337 Y121.02 E5.36208
G1 X196.899 Y121.428 E5.39673
G1 X197.261 Y121.782 E5.42199
G1 X197.712 Y122.39 E5.45976
G1 X197.946 Y122.838 E5.48498
G1 X198.18 Y123.511 E5.52052
G1 X198.29 Y124.4 E5.56521
G1 X198.3 Y125.091 E5.59969
G1 X198.3 Y174.93 E8.08617
G1 X198.288 Y175.687 E8.12394
G1 X198.217 Y176.348 E8.15711
G1 X198.05 Y176.955 E8.18852
G1 X197.819 Y177.475 E8.21691
G1 X197.439 Y178.059 E8.25167
G1 X196.994 Y178.54 E8.28436
G1 X196.377 Y179.008 E8.32299
G1 X195.672 Y179.429 E8.36396
G1 X152.535 Y204.338 E10.8491
G1 X151.889 Y204.695 E10.88593
G1 X151.37 Y204.927 E10.91429
G1 X150.762 Y205.095 E10.94576
G1 X150.132 Y205.167 E10.97739
G1 X149.442 Y205.13 E11.01187
G1 X148.872 Y205.013 E11.0409
G1 X148.05 Y204.663 E11.08547
G1 X147.35 Y204.271 E11.1255
G1 X104.276 Y179.402 E13.60692
G1 X103.661 Y179.036 E13.64262
G1 X103.099 Y178.628 E13.67727
G1 X102.737 Y178.274 E13.70253
G1 X102.286 Y177.666 E13.7403
G1 X102.052 Y177.218 E13.76552
G1 X101.818 Y176.545 E13.80106
G1 X101.708 Y175.654 E13.84585
G1 X101.698 Y174.93 E13.88198
G1 X101.698 Y125.102 E16.36791
G1 X101.71 Y124.367 E16.40458
G1 X101.781 Y123.707 E16.4377
G1 X101.927 Y123.157 E16.46609
G1 X102.149 Y122.637 E16.4943
G1 X102.516 Y122.052 E16.52875
G1 X102.943 Y121.562 E16.56118
G0 F7500 X103.218 Y121.856
G1 F1500 X103.863 Y121.367 E16.60156
G1 X104.526 Y120.973 E16.64003
G1 X147.659 Y96.068 E19.1249
G1 X148.271 Y95.727 E19.15986
G1 X148.731 Y95.516 E19.18511
G1 X149.277 Y95.359 E19.21345
G1 X149.904 Y95.287 E19.24494
G1 X150.473 Y95.317 E19.27336
G1 X151.004 Y95.426 E19.30041
G1 X151.753 Y95.742 E19.34096
G1 X152.448 Y96.131 E19.3807
G1 X195.517 Y120.998 E21.86186
G1 X196.132 Y121.364 E21.89756
G1 X196.619 Y121.714 E21.92748
G1 X196.981 Y122.068 E21.95274
G1 X197.357 Y122.575 E21.98423
G1 X197.591 Y123.023 E22.00945
G1 X197.788 Y123.599 E22.03982
G1 X197.89 Y124.406 E22.0804
G1 X197.9 Y125.097 E22.11488
G1 X197.9 Y174.924 E24.60076
G1 X197.89 Y175.647 E24.63683
G1 X197.83 Y176.245 E24.66682
G1 X197.684 Y176.793 E24.69511
G1 X197.453 Y177.313 E24.7235
G1 X197.143 Y177.79 E24.75188
G1 X196.752 Y178.221 E24.78091
G1 X196.135 Y178.689 E24.81955
G1 X195.472 Y179.083 E24.85803
G1 X152.341 Y203.988 E27.34281
G1 X151.723 Y204.331 E27.37807
G1 X151.263 Y204.541 E27.4033
G1 X150.655 Y204.709 E27.43477
G1 X150.09 Y204.769 E27.46312
G1 X149.522 Y204.738 E27.4915
G1 X148.99 Y204.629 E27.51859
G1 X148.245 Y204.314 E27.55894
G1 X147.55 Y203.925 E27.59868
G1 X104.481 Y179.058 E30.07983
G1 X103.866 Y178.692 E30.11554
G1 X103.379 Y178.342 E30.14546
G1 X103.017 Y177.988 E30.17072
G1 X102.641 Y177.481 E30.20221
G1 X102.407 Y177.033 E30.22743
G1 X102.21 Y176.457 E30.2578
G1 X102.108 Y175.648 E30.29848
G1 X102.098 Y174.924 E30.3346
G1 X102.098 Y125.108 E32.81993
G1 X102.108 Y124.407 E32.85491
G1 X102.168 Y123.81 E32.88484
G1 X102.314 Y123.26 E32.91323
G1 X102.516 Y122.797 E32.93844
G1 X102.818 Y122.315 E32.96681
G1 X103.218 Y121.856 E32.99719
G0 F7500 X103.49 Y122.152
G1 F1500 X104.068 Y121.711 E33.03346
G1 X104.726 Y121.319 E33.07167
G1 X147.854 Y96.417 E35.55625
G1 X148.438 Y96.091 E35.58962
G1 X148.898 Y95.88 E35.61487
G1 X149.385 Y95.744 E35.64009
G1 X149.887 Y95.687 E35.6653
G1 X150.392 Y95.709 E35.69052
G1 X150.887 Y95.811 E35.71573
G1 X151.558 Y96.091 E35.75201
G1 X152.248 Y96.477 E35.79145
G1 X195.312 Y121.342 E38.27234
G1 X195.927 Y121.708 E38.30805
G1 X196.339 Y122 E38.33324
G1 X196.701 Y122.354 E38.3585
G1 X197.002 Y122.76 E38.38372
G1 X197.236 Y123.208 E38.40893
G1 X197.396 Y123.687 E38.43413
G1 X197.49 Y124.412 E38.4706
G1 X197.5 Y125.103 E38.50508
G1 X197.5 Y174.918 E40.99036
G1 X197.49 Y175.641 E41.02643
G1 X197.443 Y176.145 E41.05169
G1 X197.317 Y176.634 E41.07688
G1 X197.116 Y177.098 E41.10211
G1 X196.844 Y177.525 E41.12737
G1 X196.509 Y177.903 E41.15256
G1 X195.93 Y178.345 E41.18891
G1 X195.272 Y178.737 E41.22712
G1 X152.146 Y203.639 E43.71161
G1 X151.557 Y203.967 E43.74524
G1 X151.097 Y204.177 E43.77047
G1 X150.61 Y204.312 E43.79569
G1 X150.108 Y204.369 E43.82089
G1 X149.603 Y204.346 E43.84611
G1 X149.107 Y204.244 E43.87138
G1 X148.44 Y203.965 E43.90745
G1 X147.75 Y203.579 E43.94689
G1 X104.686 Y178.714 E46.42778
G1 X104.071 Y178.348 E46.46349
G1 X103.659 Y178.056 E46.48868
G1 X103.297 Y177.702 E46.51394
G1 X102.996 Y177.296 E46.53916
G1 X102.762 Y176.848 E46.56437
G1 X102.602 Y176.369 E46.58957
G1 X102.508 Y175.642 E46.62614
G1 X102.498 Y174.918 E46.66226
G1 X102.498 Y125.114 E49.14699
G1 X102.508 Y124.413 E49.18197
G1 X102.555 Y123.91 E49.20718
G1 X102.681 Y123.42 E49.23242
G1 X102.883 Y122.957 E49.25762
G1 X103.155 Y122.53 E49.28288
G1 X103.49 Y122.152 E49.30808
G1 F1500 E42.80808
G0 F7500 X105.898 Y124.568
G1 F1500 E49.30808
G1 X149.999 Y99.104 E51.84871
G1 X194.1 Y124.568 E54.38935
G1 X194.1 Y175.488 E56.92976
G1 X149.999 Y200.952 E59.4704
G1 X105.898 Y175.488 E62.01104
G1 X105.898 Y124.568 E64.55145
G0 F7500 X106.298 Y124.8
G1 F1500 X149.999 Y99.566 E67.06906
G1 X193.7 Y124.8 E69.58668
G1 X193.7 Y175.256 E72.10394
G1 X149.999 Y200.49 E74.62156
G1 X106.298 Y175.256 E77.13918
G1 X106.298 Y124.8 E79.65644
G0 F7500 X106.698 Y125.03
G1 F1500 X149.999 Y100.028 E82.15099
G1 X193.3 Y125.03 E84.64553
G1 X193.3 Y175.026 E87.13985
G1 X149.999 Y200.028 E89.63439
G1 X106.698 Y175.026 E92.12894
G1 X106.698 Y125.03 E94.62325
G1 F1500 E88.12325
G0 F7500 X145.12 Y147.384
G1 F1500 E94.62325
G1 X145.065 Y147.489 E94.62917
G1 X144.834 Y147.997 E94.65701
G1 X144.789 Y148.113 E94.66321
G1 X144.629 Y148.626 E94.69002
G1 X144.601 Y148.742 E94.69598
G1 X144.499 Y149.292 E94.72389
G1 X144.484 Y149.41 E94.72982
G1 X144.449 Y149.957 E94.75717
G1 X144.449 Y150.081 E94.76335
G1 X144.482 Y150.631 E94.79084
G1 X144.496 Y150.75 E94.79682
G1 X144.594 Y151.289 E94.82415
G1 X144.623 Y151.406 E94.83016
G1 X144.784 Y151.925 E94.85727
G1 X144.826 Y152.037 E94.86324
G1 X145.059 Y152.558 E94.89172
G1 X145.116 Y152.667 E94.89785
G1 X145.389 Y153.119 E94.9242
G1 X145.457 Y153.217 E94.93015
G1 X145.798 Y153.654 E94.9578
G1 X145.878 Y153.745 E94.96385
G1 X146.271 Y154.139 E94.99161
G1 X146.362 Y154.22 E94.99769
G1 X146.788 Y154.554 E95.0247
G1 X146.886 Y154.622 E95.03065
G1 X147.355 Y154.907 E95.05803
G1 X147.46 Y154.962 E95.06394
G1 X147.968 Y155.193 E95.09178
G1 X148.085 Y155.238 E95.09804
G1 X148.606 Y155.4 E95.12526
G1 X148.722 Y155.428 E95.13121
G1 X149.264 Y155.528 E95.15871
G1 X149.381 Y155.543 E95.16459
G1 X149.929 Y155.578 E95.19199
G1 X150.054 Y155.578 E95.19822
G1 X150.607 Y155.544 E95.22586
G1 X150.724 Y155.53 E95.23174
G1 X151.26 Y155.433 E95.25892
G1 X151.378 Y155.404 E95.26498
G1 X151.904 Y155.241 E95.29245
G1 X152.017 Y155.199 E95.29847
G1 X152.524 Y154.972 E95.32618
G1 X152.633 Y154.914 E95.33234
G1 X153.095 Y154.634 E95.35929
G1 X153.192 Y154.567 E95.36518
G1 X153.625 Y154.229 E95.39258
G1 X153.716 Y154.149 E95.39863
G1 X154.109 Y153.757 E95.42632
G1 X154.189 Y153.667 E95.43233
G1 X154.528 Y153.236 E95.45968
G1 X154.599 Y153.134 E95.46588
G1 X154.878 Y152.671 E95.49285
G1 X154.931 Y152.571 E95.4985
G1 X155.164 Y152.061 E95.52647
G1 X155.209 Y151.942 E95.53282
G1 X155.371 Y151.421 E95.56004
G1 X155.399 Y151.305 E95.56599
G1 X155.499 Y150.763 E95.59349
G1 X155.514 Y150.646 E95.59938
G1 X155.549 Y150.098 E95.62677
G1 X155.549 Y149.973 E95.63301
G1 X155.515 Y149.42 E95.66065
G1 X155.501 Y149.303 E95.66653
G1 X155.404 Y148.767 E95.6937
G1 X155.375 Y148.649 E95.69977
G1 X155.213 Y148.126 E95.72708
G1 X155.17 Y148.012 E95.73316
G1 X154.941 Y147.503 E95.76101
G1 X154.886 Y147.398 E95.76692
G1 X154.609 Y146.937 E95.79375
G1 X154.539 Y146.835 E95.79992
G1 X154.196 Y146.397 E95.82768
G1 X154.117 Y146.308 E95.83361
G1 X153.728 Y145.918 E95.8611
G1 X153.638 Y145.838 E95.8671
G1 X153.207 Y145.499 E95.89446
G1 X153.105 Y145.428 E95.90066
G1 X152.642 Y145.149 E95.92763
G1 X152.541 Y145.096 E95.93332
G1 X152.03 Y144.863 E95.96134
G1 X151.913 Y144.818 E95.96759
G1 X151.394 Y144.656 E95.99472
G1 X151.277 Y144.628 E96.00072
G1 X150.734 Y144.528 E96.02827
G1 X150.617 Y144.513 E96.03415
G1 X150.069 Y144.478 E96.06155
G1 X149.944 Y144.478 E96.06778
G1 X149.391 Y144.512 E96.09542
G1 X149.274 Y144.526 E96.1013
G1 X148.739 Y144.623 E96.12843
G1 X148.621 Y144.652 E96.13449
G1 X148.095 Y144.815 E96.16197
G1 X147.982 Y144.858 E96.168
G1 X147.478 Y145.084 E96.19555
G1 X147.372 Y145.139 E96.20151
G1 X146.908 Y145.418 E96.22852
G1 X146.806 Y145.488 E96.2347
G1 X146.368 Y145.831 E96.26245
G1 X146.279 Y145.91 E96.26839
G1 X145.888 Y146.3 E96.29594
G1 X145.807 Y146.391 E96.30202
G1 X145.473 Y146.817 E96.32902
G1 X145.405 Y146.915 E96.33498
G1 X145.12 Y147.384 E96.36236
G0 F7500 X145.462 Y147.591
G1 F1500 X145.429 Y147.655 E96.36595
G1 X145.198 Y148.163 E96.39379
G1 X145.171 Y148.232 E96.39749
G1 X145.011 Y148.745 E96.4243
G1 X144.994 Y148.815 E96.42789
G1 X144.892 Y149.365 E96.4558
G1 X144.883 Y149.436 E96.45937
G1 X144.848 Y149.983 E96.48671
G1 X144.848 Y150.057 E96.49041
G1 X144.881 Y150.607 E96.51789
G1 X144.89 Y150.678 E96.52146
G1 X144.988 Y151.217 E96.5488
G1 X145.005 Y151.288 E96.55244
G1 X145.166 Y151.807 E96.57955
G1 X145.191 Y151.874 E96.58312
G1 X145.424 Y152.395 E96.61159
G1 X145.458 Y152.46 E96.61525
G1 X145.731 Y152.912 E96.64159
G1 X145.772 Y152.971 E96.64518
G1 X146.113 Y153.408 E96.67283
G1 X146.161 Y153.463 E96.67647
G1 X146.554 Y153.857 E96.70424
G1 X146.609 Y153.905 E96.70788
G1 X147.035 Y154.239 E96.73489
G1 X147.093 Y154.28 E96.73843
G1 X147.562 Y154.565 E96.76581
G1 X147.626 Y154.598 E96.7694
G1 X148.134 Y154.829 E96.79724
G1 X148.204 Y154.856 E96.80099
G1 X148.725 Y155.018 E96.82821
G1 X148.794 Y155.035 E96.83175
G1 X149.336 Y155.135 E96.85925
G1 X149.407 Y155.144 E96.86282
G1 X149.955 Y155.179 E96.89022
G1 X150.03 Y155.179 E96.89396
G1 X150.583 Y155.145 E96.9216
G1 X150.653 Y155.136 E96.92512
G1 X151.189 Y155.039 E96.9523
G1 X151.26 Y155.022 E96.95594
G1 X151.786 Y154.859 E96.98341
G1 X151.853 Y154.834 E96.98698
G1 X152.36 Y154.607 E97.01469
G1 X152.426 Y154.572 E97.01842
G1 X152.888 Y154.292 E97.04537
G1 X152.946 Y154.252 E97.04889
G1 X153.379 Y153.914 E97.07629
G1 X153.434 Y153.866 E97.07993
G1 X153.827 Y153.474 E97.10763
G1 X153.875 Y153.42 E97.11123
G1 X154.214 Y152.989 E97.13859
G1 X154.256 Y152.928 E97.14228
G1 X154.535 Y152.465 E97.16925
G1 X154.567 Y152.404 E97.17269
G1 X154.8 Y151.894 E97.20066
G1 X154.827 Y151.823 E97.20445
G1 X154.989 Y151.302 E97.23167
G1 X155.006 Y151.233 E97.23522
G1 X155.106 Y150.691 E97.26272
G1 X155.115 Y150.62 E97.26629
G1 X155.15 Y150.072 E97.29368
G1 X155.15 Y149.997 E97.29742
G1 X155.116 Y149.444 E97.32506
G1 X155.107 Y149.374 E97.32859
G1 X155.01 Y148.838 E97.35576
G1 X154.993 Y148.767 E97.3594
G1 X154.831 Y148.244 E97.38672
G1 X154.805 Y148.176 E97.39035
G1 X154.576 Y147.667 E97.4182
G1 X154.543 Y147.604 E97.42175
G1 X154.266 Y147.143 E97.44858
G1 X154.224 Y147.082 E97.45227
G1 X153.881 Y146.644 E97.48003
G1 X153.834 Y146.59 E97.4836
G1 X153.445 Y146.2 E97.51108
G1 X153.391 Y146.152 E97.51468
G1 X152.96 Y145.813 E97.54204
G1 X152.899 Y145.771 E97.54574
G1 X152.436 Y145.492 E97.57271
G1 X152.375 Y145.46 E97.57614
G1 X151.864 Y145.227 E97.60416
G1 X151.794 Y145.2 E97.6079
G1 X151.275 Y145.038 E97.63503
G1 X151.205 Y145.021 E97.63862
G1 X150.662 Y144.921 E97.66617
G1 X150.591 Y144.912 E97.66974
G1 X150.043 Y144.877 E97.69714
G1 X149.968 Y144.877 E97.70088
G1 X149.415 Y144.911 E97.72852
G1 X149.345 Y144.92 E97.73204
G1 X148.81 Y145.017 E97.75917
G1 X148.739 Y145.034 E97.76281
G1 X148.213 Y145.197 E97.79028
G1 X148.146 Y145.223 E97.79387
G1 X147.642 Y145.449 E97.82142
G1 X147.578 Y145.482 E97.82502
G1 X147.114 Y145.761 E97.85203
G1 X147.053 Y145.803 E97.85572
G1 X146.615 Y146.146 E97.88348
G1 X146.561 Y146.193 E97.88705
G1 X146.17 Y146.583 E97.9146
G1 X146.122 Y146.638 E97.91824
G1 X145.788 Y147.064 E97.94525
G1 X145.747 Y147.122 E97.94879
G1 X145.462 Y147.591 E97.97617
G0 F7500 X145.804 Y147.799
G1 F1500 X145.793 Y147.82 E97.97736
G1 X145.562 Y148.328 E98.0052
G1 X145.553 Y148.351 E98.00643
G1 X145.393 Y148.864 E98.03324
G1 X145.387 Y148.888 E98.03447
G1 X145.285 Y149.438 E98.06238
G1 X145.282 Y149.461 E98.06354
G1 X145.247 Y150.008 E98.09088
G1 X145.247 Y150.033 E98.09213
G1 X145.28 Y150.583 E98.11962
G1 X145.283 Y150.607 E98.12083
G1 X145.381 Y151.146 E98.14816
G1 X145.387 Y151.169 E98.14934
G1 X145.548 Y151.688 E98.17645
G1 X145.556 Y151.711 E98.17767
G1 X145.789 Y152.232 E98.20614
G1 X145.801 Y152.253 E98.20735
G1 X146.074 Y152.705 E98.23369
G1 X146.087 Y152.725 E98.23488
G1 X146.428 Y153.162 E98.26254
G1 X146.444 Y153.18 E98.26374
G1 X146.837 Y153.574 E98.2915
G1 X146.856 Y153.59 E98.29274
G1 X147.282 Y153.924 E98.31975
G1 X147.301 Y153.938 E98.32093
G1 X147.77 Y154.223 E98.34831
G1 X147.791 Y154.234 E98.34949
G1 X148.299 Y154.465 E98.37733
G1 X148.323 Y154.474 E98.37861
G1 X148.844 Y154.636 E98.40583
G1 X148.867 Y154.642 E98.40702
G1 X149.409 Y154.742 E98.43451
G1 X149.432 Y154.745 E98.43567
G1 X149.98 Y154.78 E98.46307
G1 X150.005 Y154.78 E98.46431
G1 X150.558 Y154.746 E98.49195
G1 X150.582 Y154.743 E98.49316
G1 X151.118 Y154.646 E98.52034
G1 X151.141 Y154.64 E98.52152
G1 X151.667 Y154.477 E98.549
G1 X151.69 Y154.469 E98.55021
G1 X152.197 Y154.242 E98.57793
G1 X152.219 Y154.23 E98.57918
G1 X152.681 Y153.95 E98.60613
G1 X152.7 Y153.937 E98.60728
G1 X153.133 Y153.599 E98.63468
G1 X153.151 Y153.583 E98.63588
G1 X153.544 Y153.191 E98.66358
G1 X153.56 Y153.173 E98.66478
G1 X153.899 Y152.742 E98.69213
G1 X153.913 Y152.721 E98.69339
G1 X154.192 Y152.258 E98.72036
G1 X154.203 Y152.238 E98.7215
G1 X154.436 Y151.728 E98.74947
G1 X154.445 Y151.704 E98.75075
G1 X154.607 Y151.183 E98.77797
G1 X154.613 Y151.16 E98.77916
G1 X154.713 Y150.618 E98.80666
G1 X154.716 Y150.595 E98.80781
G1 X154.751 Y150.047 E98.83521
G1 X154.751 Y150.022 E98.83646
G1 X154.717 Y149.469 E98.8641
G1 X154.714 Y149.445 E98.8653
G1 X154.617 Y148.909 E98.89248
G1 X154.611 Y148.886 E98.89367
G1 X154.449 Y148.363 E98.92098
G1 X154.44 Y148.34 E98.92221
G1 X154.211 Y147.831 E98.95006
G1 X154.2 Y147.81 E98.95124
G1 X153.923 Y147.349 E98.97807
G1 X153.909 Y147.329 E98.97929
G1 X153.566 Y146.891 E99.00705
G1 X153.551 Y146.873 E99.00822
G1 X153.162 Y146.483 E99.0357
G1 X153.144 Y146.467 E99.0369
G1 X152.713 Y146.128 E99.06426
G1 X152.692 Y146.114 E99.06551
G1 X152.229 Y145.835 E99.09248
G1 X152.209 Y145.824 E99.09362
G1 X151.698 Y145.591 E99.12164
G1 X151.675 Y145.582 E99.12287
G1 X151.156 Y145.42 E99.15
G1 X151.132 Y145.414 E99.15123
G1 X150.589 Y145.314 E99.17878
G1 X150.566 Y145.311 E99.17994
G1 X150.018 Y145.276 E99.20733
G1 X149.993 Y145.276 E99.20858
G1 X149.44 Y145.31 E99.23622
G1 X149.416 Y145.313 E99.23743
G1 X148.881 Y145.41 E99.26455
G1 X148.858 Y145.416 E99.26574
G1 X148.332 Y145.579 E99.29321
G1 X148.309 Y145.588 E99.29444
G1 X147.805 Y145.814 E99.322
G1 X147.784 Y145.825 E99.32318
G1 X147.32 Y146.104 E99.3502
G1 X147.3 Y146.118 E99.35141
G1 X146.862 Y146.461 E99.37917
G1 X146.844 Y146.476 E99.38034
G1 X146.453 Y146.866 E99.40789
G1 X146.437 Y146.885 E99.40913
G1 X146.103 Y147.311 E99.43614
G1 X146.089 Y147.33 E99.43731
G1 X145.804 Y147.799 E99.46469
G1 F1500 E92.96469
G0 F7500 X148.193 Y149.15
G1 F1500 E99.46469
G1 X148.33 Y148.913 E99.47835
G1 X148.51 Y148.683 E99.49292
G1 X148.711 Y148.487 E99.50693
G1 X148.938 Y148.323 E99.5209
G1 X149.176 Y148.196 E99.53436
