;FLAVOR:Marlin
;TIME:34849
;Filament used: 33.3541m
;Layer height: 0.2
;MINX:83.912
;MINY:22.431
;MINZ:0.3
;MAXX:173.247
;MAXY:276.367
;MAXZ:48.1
;Generated with Cura_SteamEngine 5.4.0
M140 S60
M105
M190 S60
M104 S200
M105
M109 S200
M82 ;absolute extrusion mode
M106 S255
;MESH:NONMESH
G0 F300 X132.399 Y46.56 Z11.1
G0 F9000 X132.301 Y46.56
G0 X131.619 Y62.409
G0 X130.534 Y62.409
G0 X118.954 Y62.633
G0 X117.871 Y62.633
G0 X96.561 Y62.407
;TIME_ELAPSED:25358.324125
;LAYER:54
;TYPE:FILL
;MESH:Eslabon2.stl
G1 F1500 E508.08515
G1 F6000 X95.993 Y64.524 E508.15805
G0 F9000 X97.006 Y61.962
G1 F6000 X107.92 Y72.875 E508.67139
G0 F9000 X106.179 Y72.875
G1 F6000 X109.167 Y61.722 E509.05542
G0 F9000 X105.253 Y61.724
G1 F6000 X116.099 Y72.57 E509.56559
G0 F9000 X112.39 Y72.876
G1 F6000 X115.379 Y61.722 E509.94966
G0 F9000 X116.282 Y62.21
G1 F6000 X95.994 Y67.646 E510.64824
G0 F9000 X95.993 Y69.434
G1 F6000 X99.434 Y72.875 E510.8101
G0 F9000 X99.663 Y72.875
G1 F6000 X117.046 Y68.217 E511.40865
G0 F9000 X117.045 Y65.031
G1 F6000 X113.738 Y61.724 E511.56421
G0 F9000 X102.956 Y61.722
G1 F6000 X99.967 Y72.875 E511.94825
G0 F9000 X115.827 Y72.956
;TYPE:WALL-INNER
G1 F1500 X117.127 Y71.657 E512.00937
G1 X117.127 Y62.943 E512.2992
G1 X115.828 Y61.644 E512.3603
G1 X97.214 Y61.644 E512.9794
G1 X95.914 Y62.943 E513.04053
G1 X95.914 Y71.657 E513.33036
G1 X97.213 Y72.956 E513.39146
G1 X115.827 Y72.956 E514.01056
G0 F9000 X115.993 Y73.356
G1 F1500 X117.527 Y71.823 E514.08269
G1 X117.527 Y62.777 E514.38357
G1 X115.994 Y61.244 E514.45567
G1 X97.048 Y61.244 E515.08582
G1 X95.514 Y62.777 E515.15795
G1 X95.514 Y71.823 E515.45882
G1 X97.047 Y73.356 E515.53093
G1 X115.993 Y73.356 E516.16108
G0 F9000 X116.159 Y73.756
;TYPE:WALL-OUTER
G1 F1500 X117.927 Y71.989 E516.24421
G1 X117.927 Y62.611 E516.55613
G1 X116.16 Y60.844 E516.63924
G1 X96.882 Y60.844 E517.28043
G1 X95.114 Y62.611 E517.36357
G1 X95.114 Y71.989 E517.67548
G1 X96.881 Y73.756 E517.7586
G1 X116.159 Y73.756 E518.39979
G0 F9000 X116.3 Y73.615
G0 X115.739 Y72.765
G1 F1500 E511.89979
G0 F9000 X112.887 Y73.531
G0 X112.887 Y74.616
G0 X107.23 Y245.436
G0 X107.024 Y246.501
G0 X108.023 Y249.654
G0 X108.023 Y250.213
G0 X107.728 Y251.969
;TYPE:WALL-INNER
G1 F1500 E518.39979
G1 F1351.4 X107.324 Y252.243 E518.41781
G1 F1354.4 X106.94 Y252.42 E518.43338
G1 X106.479 Y252.543 E518.45096
G1 F1348.3 X106.036 Y252.577 E518.4674
G1 F1342.3 X105.575 Y252.527 E518.48463
G1 F1339.3 X105.194 Y252.425 E518.49933
G1 X104.822 Y252.255 E518.51456
G1 X104.478 Y252.026 E518.52996
G1 X104.13 Y251.709 E518.54749
G1 F1345.3 X103.807 Y251.249 E518.56834
G1 F1348.3 X103.626 Y250.845 E518.58472
G1 F1342.3 X103.521 Y250.402 E518.60164
G1 F1339.3 X103.489 Y250 E518.61666
G1 X103.521 Y249.598 E518.63168
G1 F1342.3 X103.627 Y249.151 E518.64876
G1 F1348.3 X103.807 Y248.753 E518.66492
G1 F1351.4 X104.037 Y248.416 E518.67998
G1 F1342.3 X104.204 Y248.223 E518.68947
G1 F1336.3 X104.478 Y247.974 E518.70329
G1 F1339.3 X104.822 Y247.745 E518.71869
G1 X105.194 Y247.575 E518.73392
G1 X105.575 Y247.473 E518.74861
G1 F1342.3 X106.039 Y247.422 E518.76596
G1 F1348.3 X106.477 Y247.456 E518.78222
G1 F1357.5 X106.939 Y247.578 E518.79978
G1 F1360.5 X107.324 Y247.755 E518.81532
G1 F1351.4 X107.729 Y248.032 E518.83344
G1 F1342.3 X108.044 Y248.356 E518.85023
G1 F1339.3 X108.278 Y248.688 E518.86536
G1 F1345.3 X108.483 Y249.111 E518.88279
G1 F1351.4 X108.596 Y249.518 E518.89839
G1 F1354.4 X108.635 Y250 E518.9162
G1 X108.595 Y250.484 E518.93409
G1 F1351.4 X108.479 Y250.898 E518.94996
G1 F1345.3 X108.278 Y251.312 E518.96703
G1 F1339.3 X108.044 Y251.644 E518.98216
G1 F1342.3 X107.728 Y251.969 E518.99901
G0 F9000 X107.682 Y251.417
G1 F1500 X107.428 Y251.663 E519.01077
G1 X107.122 Y251.873 E519.02311
G1 X106.798 Y252.023 E519.03499
G1 X106.451 Y252.115 E519.04693
G1 X106.088 Y252.15 E519.05906
G1 X105.664 Y252.113 E519.07321
G1 X105.323 Y252.024 E519.08494
G1 X104.965 Y251.849 E519.09819
G1 X104.642 Y251.612 E519.11151
G1 X104.413 Y251.381 E519.12233
G1 X104.199 Y251.08 E519.13462
G1 X104.048 Y250.755 E519.14654
G1 X103.952 Y250.407 E519.15854
G1 X103.909 Y249.999 E519.17219
G1 X103.941 Y249.653 E519.18374
G1 X104.048 Y249.245 E519.19777
G1 X104.198 Y248.922 E519.20962
G1 X104.412 Y248.616 E519.22204
G1 X104.666 Y248.366 E519.23389
G1 X104.947 Y248.163 E519.24542
G1 X105.321 Y247.977 E519.25931
G1 X105.664 Y247.887 E519.27111
G1 X106.088 Y247.85 E519.28526
G1 X106.451 Y247.884 E519.29739
G1 X106.798 Y247.975 E519.30932
G1 X107.122 Y248.127 E519.32123
G1 X107.428 Y248.337 E519.33357
G1 X107.682 Y248.583 E519.34533
G1 X107.917 Y248.911 E519.35875
G1 X108.094 Y249.288 E519.3726
G1 X108.182 Y249.636 E519.38454
G1 X108.213 Y250 E519.39669
G1 X108.183 Y250.364 E519.40884
G1 X108.094 Y250.711 E519.42075
G1 X107.945 Y251.042 E519.43283
G1 X107.682 Y251.417 E519.44806
G0 F9000 X108.073 Y252.258
G1 F1339.3 X108.391 Y251.926 E519.46519
G1 X108.661 Y251.543 E519.48264
G1 X108.867 Y251.127 E519.49994
G1 F1336.3 X109.004 Y250.69 E519.51703
G1 F1333.3 X109.076 Y250.232 E519.53438
G1 F1330.4 X109.076 Y249.768 E519.55178
G1 F1333.3 X109.004 Y249.31 E519.56913
G1 F1336.3 X108.867 Y248.873 E519.58623
G1 F1339.3 X108.661 Y248.457 E519.60352
G1 X108.391 Y248.074 E519.62098
G1 X108.073 Y247.742 E519.6381
G1 F1333.3 X107.709 Y247.466 E519.65519
G1 X107.295 Y247.241 E519.67283
G1 X106.865 Y247.089 E519.68989
G1 X106.41 Y247 E519.70724
G1 F1336.3 X105.947 Y246.98 E519.72454
G1 F1339.3 X105.487 Y247.034 E519.74179
G1 X105.046 Y247.153 E519.75881
G1 X104.613 Y247.349 E519.77651
G1 F1336.3 X104.235 Y247.593 E519.79331
G1 F1333.3 X103.884 Y247.908 E519.81096
G1 X103.593 Y248.26 E519.82805
G1 X103.356 Y248.659 E519.84541
G1 F1336.3 X103.183 Y249.086 E519.86261
G1 F1339.3 X103.077 Y249.536 E519.87984
G1 X103.041 Y250 E519.89717
G1 X103.077 Y250.464 E519.91451
G1 X103.183 Y250.914 E519.93173
G1 F1336.3 X103.356 Y251.341 E519.94893
G1 F1333.3 X103.593 Y251.74 E519.9663
G1 X103.884 Y252.092 E519.98338
G1 X104.236 Y252.406 E520.00103
G1 F1336.3 X104.613 Y252.651 E520.01782
G1 F1339.3 X105.046 Y252.847 E520.03553
G1 X105.487 Y252.966 E520.05254
G1 X105.947 Y253.02 E520.06979
G1 F1336.3 X106.41 Y253 E520.0871
G1 F1333.3 X106.865 Y252.912 E520.10444
G1 X107.295 Y252.759 E520.12152
G1 X107.709 Y252.534 E520.13915
G1 X108.073 Y252.258 E520.15624
G0 F9000 X108.356 Y252.575
G1 F1500 X108.719 Y252.197 E520.17367
G1 X109.026 Y251.761 E520.1914
G1 X109.261 Y251.286 E520.20903
G1 X109.419 Y250.787 E520.22644
G1 X109.501 Y250.264 E520.24405
G1 X109.501 Y249.736 E520.26161
G1 X109.419 Y249.213 E520.27922
G1 X109.261 Y248.714 E520.29663
G1 X109.026 Y248.239 E520.31425
G1 X108.719 Y247.803 E520.33199
G1 X108.356 Y247.425 E520.34942
G1 X107.94 Y247.109 E520.36679
G1 X107.469 Y246.852 E520.38464
G1 X106.978 Y246.677 E520.40198
G1 X106.459 Y246.577 E520.41956
G1 X105.931 Y246.555 E520.43713
G1 X105.406 Y246.616 E520.45471
G1 X104.902 Y246.753 E520.47208
G1 X104.409 Y246.975 E520.49007
G1 X103.976 Y247.255 E520.50722
G1 X103.577 Y247.612 E520.52502
G1 X103.244 Y248.014 E520.54239
G1 X102.974 Y248.47 E520.56001
G1 X102.777 Y248.958 E520.57752
G1 X102.657 Y249.472 E520.59507
G1 X102.616 Y250 E520.61268
G1 X102.657 Y250.528 E520.6303
G1 X102.777 Y251.042 E520.64785
G1 X102.974 Y251.53 E520.66536
G1 X103.244 Y251.986 E520.68298
G1 X103.577 Y252.388 E520.70035
G1 X103.977 Y252.745 E520.71818
G1 X104.409 Y253.025 E520.7353
G1 X104.902 Y253.247 E520.75328
G1 X105.406 Y253.384 E520.77066
G1 X105.931 Y253.445 E520.78823
G1 X106.459 Y253.423 E520.80581
G1 X106.978 Y253.323 E520.82339
G1 X107.469 Y253.148 E520.84073
G1 X107.94 Y252.891 E520.85857
G1 X108.356 Y252.575 E520.87595
G0 F9000 X108.623 Y252.875
;TYPE:WALL-OUTER
G1 F1500 X109.029 Y252.452 E520.89545
G1 X109.371 Y251.966 E520.91522
G1 X109.633 Y251.436 E520.93488
G1 X109.81 Y250.879 E520.95432
G1 X109.901 Y250.295 E520.97398
G1 X109.901 Y249.705 E520.9936
G1 X109.81 Y249.121 E521.01326
G1 X109.633 Y248.564 E521.0327
G1 X109.371 Y248.034 E521.05236
G1 X109.029 Y247.548 E521.07213
G1 X108.623 Y247.125 E521.09163
G1 X108.158 Y246.772 E521.11105
G1 X107.633 Y246.486 E521.13093
G1 X107.084 Y246.29 E521.15032
G1 X106.505 Y246.178 E521.16993
G1 X105.915 Y246.154 E521.18957
G1 X105.33 Y246.222 E521.20916
G1 X104.767 Y246.375 E521.22857
G1 X104.217 Y246.623 E521.24863
G1 X103.733 Y246.936 E521.2678
G1 X103.288 Y247.334 E521.28766
G1 X102.916 Y247.783 E521.30705
G1 X102.614 Y248.292 E521.32674
G1 X102.394 Y248.836 E521.34626
G1 X102.26 Y249.411 E521.36589
G1 X102.215 Y250 E521.38554
G1 X102.26 Y250.589 E521.40519
G1 X102.394 Y251.164 E521.42482
G1 X102.614 Y251.708 E521.44434
G1 X102.916 Y252.217 E521.46403
G1 X103.288 Y252.666 E521.48342
G1 X103.733 Y253.064 E521.50328
G1 X104.217 Y253.377 E521.52245
G1 X104.767 Y253.625 E521.54251
G1 X105.33 Y253.778 E521.56192
G1 X105.915 Y253.846 E521.58151
G1 X106.505 Y253.822 E521.60115
G1 X107.084 Y253.71 E521.62076
G1 X107.633 Y253.514 E521.64015
G1 X108.158 Y253.228 E521.66003
G1 X108.623 Y252.875 E521.67945
G0 F9000 X108.761 Y252.731
G1 F1500 E515.17945
G0 F9000 X108.257 Y252.245
G0 X107.586 Y251.915
G0 X107.185 Y251.344
G1 F1500 E521.67945
G1 X106.93 Y251.521 E521.68978
G1 X106.663 Y251.646 E521.69958
G1 X106.375 Y251.722 E521.70949
G1 X106.044 Y251.75 E521.72054
G1 X105.766 Y251.724 E521.72982
G1 X105.478 Y251.651 E521.73971
G1 X105.183 Y251.513 E521.75054
G1 X104.932 Y251.336 E521.76075
G1 X104.721 Y251.125 E521.77068
G1 X104.547 Y250.877 E521.78075
G1 X104.419 Y250.605 E521.79075
G1 X104.337 Y250.288 E521.80164
G1 X104.313 Y249.982 E521.81185
G1 X104.338 Y249.704 E521.82113
G1 X104.423 Y249.385 E521.83212
G1 X104.547 Y249.123 E521.84176
G1 X104.721 Y248.875 E521.85183
G1 X104.932 Y248.664 E521.86176
G1 X105.183 Y248.488 E521.87195
G1 X105.478 Y248.349 E521.8828
G1 X105.771 Y248.275 E521.89285
G1 X106.082 Y248.25 E521.90323
G1 X106.387 Y248.281 E521.91342
G1 X106.663 Y248.353 E521.92291
G1 X106.93 Y248.479 E521.93273
G1 X107.185 Y248.656 E521.94306
G1 X107.392 Y248.861 E521.95275
G1 X107.576 Y249.121 E521.96334
G1 X107.712 Y249.41 E521.97396
G1 X107.788 Y249.71 E521.98426
G1 X107.813 Y250.019 E521.99457
G1 X107.787 Y250.302 E522.00402
G1 X107.712 Y250.59 E522.01392
G1 X107.585 Y250.864 E522.02396
G1 X107.403 Y251.126 E522.03457
G1 X107.185 Y251.344 E522.04483
G0 F9000 X107.021 Y251.458
G0 X107.595 Y252.277
G1 F1500 E515.54483
;MESH:Eslabon1_2.stl
G0 F9000 X109.181 Y251.858
G0 X110.153 Y252.337
G0 X145.316 Y254.762
G0 X146.396 Y254.847
G0 X147.065 Y254.76
;TYPE:FILL
G1 F1500 E522.04483
G1 F6000 X150.411 Y258.106 E522.20221
G0 F9000 X150.171 Y258.126
G1 F6000 X151.625 Y252.702 E522.38898
G0 F9000 X152.432 Y256.858
G1 F6000 X148.734 Y257.849 E522.51632
G0 F9000 X150 Y258.22
;TYPE:WALL-INNER
G1 F1500 X150.478 Y258.183 E522.53227
G1 X150.94 Y258.072 E522.54807
G1 X151.375 Y257.891 E522.56374
G1 X151.79 Y257.637 E522.57992
G1 X152.154 Y257.327 E522.59583
G1 X152.464 Y256.962 E522.61175
G1 X152.718 Y256.548 E522.62791
G1 X152.898 Y256.112 E522.6436
G1 X153.009 Y255.65 E522.6594
G1 X153.047 Y255.173 E522.67532
G1 X153.01 Y254.695 E522.69126
G1 X152.899 Y254.233 E522.70706
G1 X152.717 Y253.797 E522.72278
G1 X152.461 Y253.375 E522.7392
G1 X152.154 Y253.019 E522.75483
G1 X151.798 Y252.712 E522.77047
G1 X151.376 Y252.456 E522.78688
G1 X150.94 Y252.275 E522.80258
G1 X150.478 Y252.164 E522.81839
G1 X150 Y252.126 E522.83434
G1 X149.522 Y252.163 E522.85028
G1 X149.06 Y252.274 E522.86609
G1 X148.624 Y252.455 E522.88179
G1 X148.202 Y252.712 E522.89822
G1 X147.846 Y253.019 E522.91386
G1 X147.539 Y253.375 E522.92949
G1 X147.283 Y253.797 E522.94591
G1 X147.102 Y254.233 E522.96161
G1 X146.991 Y254.695 E522.97741
G1 X146.953 Y255.173 E522.99336
G1 X146.991 Y255.65 E523.00928
G1 X147.102 Y256.112 E523.02508
G1 X147.282 Y256.548 E523.04077
G1 X147.536 Y256.962 E523.05692
G1 X147.846 Y257.327 E523.07285
G1 X148.21 Y257.637 E523.08875
G1 X148.625 Y257.891 E523.10494
G1 X149.06 Y258.071 E523.12059
G1 X149.522 Y258.182 E523.1364
G1 X150 Y258.22 E523.15235
G0 F9000 X150 Y258.622
G1 F1500 X150.541 Y258.579 E523.1704
G1 X151.064 Y258.453 E523.18829
G1 X151.557 Y258.248 E523.20605
G1 X152.025 Y257.962 E523.22429
G1 X152.438 Y257.611 E523.24232
G1 X152.789 Y257.197 E523.26037
G1 X153.075 Y256.73 E523.27858
G1 X153.28 Y256.236 E523.29637
G1 X153.406 Y255.713 E523.31426
G1 X153.449 Y255.173 E523.33228
G1 X153.406 Y254.632 E523.35033
G1 X153.28 Y254.109 E523.36823
G1 X153.075 Y253.615 E523.38601
G1 X152.785 Y253.139 E523.40455
G1 X152.438 Y252.735 E523.42227
G1 X152.034 Y252.388 E523.43998
G1 X151.558 Y252.098 E523.45852
G1 X151.064 Y251.893 E523.47631
G1 X150.541 Y251.767 E523.4942
G1 X150 Y251.725 E523.51225
G1 X149.459 Y251.767 E523.5303
G1 X148.936 Y251.893 E523.54819
G1 X148.442 Y252.098 E523.56598
G1 X147.966 Y252.388 E523.58452
G1 X147.562 Y252.735 E523.60223
G1 X147.215 Y253.139 E523.61994
G1 X146.925 Y253.615 E523.63848
G1 X146.72 Y254.109 E523.65627
G1 X146.594 Y254.632 E523.67416
G1 X146.551 Y255.173 E523.69221
G1 X146.594 Y255.713 E523.71023
G1 X146.72 Y256.236 E523.72812
G1 X146.925 Y256.73 E523.74591
G1 X147.211 Y257.197 E523.76413
G1 X147.562 Y257.611 E523.78218
G1 X147.975 Y257.962 E523.80021
G1 X148.443 Y258.248 E523.81845
G1 X148.936 Y258.453 E523.83621
G1 X149.459 Y258.579 E523.8541
G1 X150 Y258.622 E523.87215
G0 F9000 X150 Y259.023
;TYPE:WALL-OUTER
G1 F1500 X150.604 Y258.975 E523.8923
G1 X151.188 Y258.835 E523.91228
G1 X151.739 Y258.606 E523.93212
G1 X152.261 Y258.287 E523.95247
G1 X152.722 Y257.895 E523.9726
G1 X153.114 Y257.433 E523.99275
G1 X153.433 Y256.912 E524.01307
G1 X153.662 Y256.36 E524.03294
G1 X153.802 Y255.776 E524.05292
G1 X153.85 Y255.173 E524.07304
G1 X153.802 Y254.569 E524.09319
G1 X153.662 Y253.985 E524.11316
G1 X153.433 Y253.433 E524.13304
G1 X153.11 Y252.903 E524.15368
G1 X152.722 Y252.451 E524.1735
G1 X152.27 Y252.063 E524.19331
G1 X151.74 Y251.74 E524.21395
G1 X151.188 Y251.511 E524.23383
G1 X150.604 Y251.371 E524.2538
G1 X150 Y251.323 E524.27396
G1 X149.396 Y251.371 E524.29411
G1 X148.812 Y251.511 E524.31408
G1 X148.26 Y251.74 E524.33396
G1 X147.73 Y252.063 E524.3546
G1 X147.278 Y252.451 E524.37442
G1 X146.89 Y252.903 E524.39423
G1 X146.567 Y253.433 E524.41487
G1 X146.338 Y253.985 E524.43475
G1 X146.198 Y254.569 E524.45472
G1 X146.15 Y255.173 E524.47488
G1 X146.198 Y255.776 E524.495
G1 X146.338 Y256.36 E524.51497
G1 X146.567 Y256.912 E524.53485
G1 X146.886 Y257.433 E524.55517
G1 X147.278 Y257.895 E524.57532
G1 X147.739 Y258.287 E524.59544
G1 X148.261 Y258.606 E524.61579
G1 X148.812 Y258.835 E524.63564
G1 X149.396 Y258.975 E524.65561
G1 X150 Y259.023 E524.67576
G0 F9000 X150.199 Y259.008
G0 X150.122 Y258.009
G1 F1500 E518.17576
G0 F9000 X150 Y251.544
G0 X149.914 Y250.464
G0 X150.003 Y198.713
G0 X150.003 Y197.628
G0 X148.667 Y196.965
;TYPE:FILL
G1 F1500 E524.67576
G1 F6000 X132.076 Y180.374 E525.45615
G0 F9000 X132.076 Y181.561
G1 F6000 X167.921 Y171.957 E526.69041
G0 F9000 X167.923 Y173.794
G1 F6000 X132.077 Y137.949 E528.37648
G1 X132.078 Y138.079
G1 X167.92 Y128.475 E529.61064
G0 F9000 X167.922 Y131.367
G1 F6000 X132.078 Y95.523 E531.29663
G0 F9000 X132.079 Y94.597
G1 F6000 X167.919 Y84.994 E532.53072
G0 F9000 X167.92 Y88.939
G1 F6000 X144.953 Y65.972 E533.61102
G0 F9000 X145.434 Y66.172
G1 F6000 X132.08 Y69.75 E534.07084
G0 F9000 X132.079 Y70.068
G1 F6000 X167.921 Y105.911 E535.75677
G0 F9000 X167.919 Y103.629
G1 F6000 X132.079 Y113.232 E536.99086
G0 F9000 X132.078 Y112.494
G1 F6000 X167.922 Y148.338 E538.67685
G0 F9000 X167.92 Y147.11
G1 F6000 X132.077 Y156.714 E539.91105
G0 F9000 X132.076 Y154.919
G1 F6000 X168.92 Y191.762 E541.64405
G0 F9000 X168.918 Y190.324
G1 F6000 X144.131 Y196.966 E542.49755
G0 F9000 X141.713 Y196.966
G1 F6000 X167.92 Y99.157 E545.86545
G0 F9000 X167.92 Y97.425
G1 F6000 X132.079 Y61.584 E547.5513
G0 F9000 X132.08 Y63.539
G1 F6000 X139.801 Y61.47 E547.81716
G0 F9000 X140.488 Y62.444
G1 F6000 X132.079 Y93.827 E548.89778
G0 F9000 X132.079 Y88.385
G1 F6000 X167.92 Y78.782 E550.13191
G0 F9000 X167.92 Y80.454
G1 F6000 X153.895 Y66.429 E550.7916
G0 F9000 X151.701 Y66.958
