;FLAVOR:Marlin
;TIME:34849
;Filament used: 33.3541m
;Layer height: 0.2
;MINX:83.912
;MINY:22.431
;MINZ:0.3
;MAXX:173.247
;MAXY:276.367
;MAXZ:48.1
;Generated with Cura_SteamEngine 5.4.0
M140 S60
M105
M190 S60
M104 S200
M105
M109 S200
M82 ;absolute extrusion mode
G28 ;Home
G29 ;Auto level
M420 S1
G1 Z15.0 F2000 ;Move the platform
G92 E0
G92 E0
G1 F1500 E-6.5
;LAYER_COUNT:240
;LAYER:0
M107
M204 S1000
G0 F7500 X84.393 Y48.895 Z0.3
;TYPE:SKIRT
G1 F1500 E0
G1 X84.76 Y48.324 E0.03386
G1 X85.031 Y48.006 E0.05471
G1 X85.404 Y47.617 E0.0816
G1 X102.794 Y30.227 E1.30855
G1 X103.305 Y29.733 E1.34401
G1 X103.822 Y29.318 E1.37709
G1 X104.37 Y29.006 E1.40855
G1 X104.96 Y28.783 E1.44002
G1 X105.526 Y28.658 E1.46894
G1 X106.379 Y28.638 E1.5115
G1 X106.904 Y28.679 E1.53778
G1 X109.663 Y28.854 E1.6757
G1 X112.382 Y28.95 E1.81144
G1 X115.094 Y28.969 E1.94674
G1 X117.781 Y28.911 E2.08083
G1 X120.535 Y28.774 E2.21839
G1 X123.21 Y28.564 E2.35226
G1 X125.938 Y28.274 E2.48913
G1 X128.583 Y27.916 E2.62229
G1 X131.296 Y27.471 E2.75945
G1 X133.992 Y26.951 E2.89644
G1 X136.6 Y26.368 E3.02976
G1 X139.208 Y25.709 E3.16396
G1 X141.841 Y24.963 E3.30049
G1 X144.454 Y24.142 E3.43714
G1 X147.021 Y23.256 E3.57262
G1 X147.59 Y23.042 E3.60295
G1 X148.706 Y22.642 E3.6621
G1 X149.315 Y22.486 E3.69346
G1 X149.818 Y22.431 E3.71871
G1 X150.577 Y22.471 E3.75663
G1 X151.132 Y22.593 E3.78498
G1 X151.778 Y22.847 E3.81961
G1 X152.267 Y23.135 E3.84792
G1 X152.717 Y23.494 E3.87664
G1 X152.997 Y23.756 E3.89577
G1 X171.339 Y42.093 E5.18972
G1 X171.9 Y42.672 E5.22994
G1 X172.259 Y43.113 E5.25831
G1 X172.609 Y43.717 E5.29314
G1 X172.831 Y44.306 E5.32454
G1 X172.958 Y44.91 E5.35534
G1 X172.99 Y45.344 E5.37705
G1 X173.001 Y45.97 E5.40828
G1 X173.023 Y180.959 E12.14291
G1 X173.062 Y183.698 E12.27958
G1 X173.247 Y187.618 E12.47536
G1 X173.224 Y188.248 E12.50681
G1 X173.035 Y189.654 E12.57759
G1 X172.698 Y192.429 E12.71705
G1 X172.447 Y195.114 E12.85159
G1 X172.275 Y197.782 E12.98498
G1 X172.175 Y200.536 E13.12246
G1 X172.15 Y202.712 E13.23103
G1 X172.15 Y253.585 E15.7691
G1 X172.138 Y254.321 E15.80582
G1 X172.067 Y254.981 E15.83894
G1 X171.921 Y255.531 E15.86733
G1 X171.699 Y256.051 E15.89554
G1 X171.306 Y256.674 E15.93229
G1 X171.084 Y256.937 E15.94946
G1 X170.828 Y257.209 E15.96809
G1 X153.277 Y274.764 E17.20655
G1 X152.76 Y275.264 E17.24243
G1 X152.242 Y275.68 E17.27558
G1 X151.751 Y275.965 E17.3039
G1 X151.105 Y276.214 E17.33844
G1 X150.611 Y276.323 E17.36368
G1 X149.854 Y276.367 E17.40151
G1 X149.234 Y276.297 E17.43264
G1 X148.768 Y276.178 E17.45663
G1 X145.742 Y275.176 E17.61566
G1 X143.141 Y274.401 E17.75107
G1 X140.528 Y273.7 E17.88604
G1 X137.862 Y273.07 E18.02271
G1 X135.197 Y272.516 E18.15851
G1 X132.573 Y272.047 E18.2915
G1 X129.847 Y271.64 E18.429
G1 X127.17 Y271.316 E18.56353
G1 X124.465 Y271.068 E18.69905
G1 X121.75 Y270.896 E18.83478
G1 X119.031 Y270.8 E18.97051
G1 X116.319 Y270.781 E19.10582
G1 X113.628 Y270.839 E19.2401
G1 X110.884 Y270.975 E19.37717
G1 X108.19 Y271.186 E19.51199
G1 X106.392 Y271.359 E19.6021
G1 X105.762 Y271.36 E19.63353
G1 X105.199 Y271.276 E19.66193
G1 X104.535 Y271.066 E19.69668
G1 X103.958 Y270.767 E19.7291
G1 X103.372 Y270.326 E19.76569
G1 X102.998 Y269.977 E19.79121
G1 X85.525 Y252.505 E21.02399
G1 X85.03 Y251.993 E21.05952
G1 X84.615 Y251.476 E21.09259
G1 X84.303 Y250.928 E21.12405
G1 X84.08 Y250.336 E21.15562
G1 X83.955 Y249.734 E21.18629
G1 X83.924 Y249.311 E21.20745
G1 X83.912 Y248.676 E21.23914
G1 X83.913 Y51.413 E31.08063
G1 X83.925 Y50.679 E31.11725
G1 X83.996 Y50.019 E31.15037
G1 X84.142 Y49.469 E31.17876
G1 X84.393 Y48.895 E31.21001
G0 F7500 X84.731 Y49.109
G1 F1500 X85.065 Y48.583 E31.2411
G1 X85.32 Y48.283 E31.26074
G1 X85.693 Y47.894 E31.28763
G1 X103.073 Y30.514 E32.51388
G1 X103.558 Y30.043 E32.54761
G1 X104.023 Y29.664 E32.57754
G1 X104.514 Y29.379 E32.60587
G1 X105.046 Y29.174 E32.63431
G1 X105.575 Y29.057 E32.66134
G1 X106.348 Y29.037 E32.69992
G1 X106.873 Y29.078 E32.72619
G1 X109.649 Y29.254 E32.86496
G1 X112.368 Y29.35 E33.0007
G1 X115.1 Y29.369 E33.137
G1 X117.801 Y29.311 E33.27179
G1 X120.555 Y29.174 E33.40935
G1 X123.247 Y28.963 E33.54407
G1 X125.98 Y28.672 E33.68119
G1 X128.648 Y28.311 E33.81551
G1 X131.365 Y27.865 E33.95288
G1 X134.068 Y27.343 E34.09022
G1 X136.698 Y26.756 E34.22466
G1 X139.306 Y26.097 E34.35886
G1 X141.961 Y25.345 E34.49653
G1 X144.574 Y24.524 E34.63318
G1 X147.152 Y23.634 E34.76925
G1 X147.725 Y23.418 E34.7998
G1 X148.808 Y23.029 E34.85721
G1 X149.358 Y22.884 E34.88558
G1 X149.861 Y22.829 E34.91083
G1 X150.491 Y22.862 E34.9423
G1 X151.046 Y22.984 E34.97065
G1 X151.575 Y23.192 E34.99901
G1 X152.064 Y23.48 E35.02732
G1 X152.465 Y23.805 E35.05308
G1 X152.714 Y24.039 E35.07012
G1 X171.052 Y42.372 E36.36379
G1 X171.592 Y42.928 E36.40246
G1 X171.915 Y43.317 E36.42769
G1 X172.236 Y43.86 E36.45916
G1 X172.44 Y44.391 E36.48754
G1 X172.559 Y44.94 E36.51556
G1 X172.59 Y45.351 E36.53612
G1 X172.601 Y45.97 E36.56701
G1 X172.623 Y180.959 E43.30164
G1 X172.662 Y183.716 E43.4392
G1 X172.816 Y187.08 E43.60721
G1 X172.847 Y187.603 E43.63335
G1 X172.824 Y188.233 E43.6648
G1 X172.639 Y189.6 E43.73362
G1 X172.301 Y192.381 E43.87338
G1 X172.049 Y195.077 E44.00847
G1 X171.875 Y197.767 E44.14296
G1 X171.775 Y200.521 E44.28045
G1 X171.75 Y202.707 E44.38952
G1 X171.75 Y253.579 E46.92753
G1 X171.74 Y254.281 E46.96256
G1 X171.68 Y254.878 E46.99249
G1 X171.534 Y255.428 E47.02088
G1 X171.332 Y255.891 E47.04608
G1 X171 Y256.416 E47.07707
G1 X170.792 Y256.663 E47.09318
G1 X170.545 Y256.926 E47.11118
G1 X152.998 Y274.477 E48.34936
G1 X152.507 Y274.954 E48.38351
G1 X152.041 Y275.334 E48.41351
G1 X151.55 Y275.619 E48.44183
G1 X151.019 Y275.823 E48.47021
G1 X150.525 Y275.932 E48.49545
G1 X149.896 Y275.969 E48.52689
G1 X149.333 Y275.909 E48.55514
G1 X148.867 Y275.79 E48.57913
G1 X145.868 Y274.797 E48.73674
G1 X143.245 Y274.015 E48.87329
G1 X140.627 Y273.313 E49.00852
G1 X137.943 Y272.678 E49.14612
G1 X135.278 Y272.124 E49.28192
G1 X132.632 Y271.651 E49.41602
G1 X129.906 Y271.244 E49.55353
G1 X127.218 Y270.919 E49.68861
G1 X124.494 Y270.669 E49.82509
G1 X121.764 Y270.496 E49.96156
G1 X119.045 Y270.4 E50.09729
G1 X116.313 Y270.381 E50.2336
G1 X113.608 Y270.439 E50.36858
G1 X110.864 Y270.575 E50.50565
G1 X108.159 Y270.787 E50.64102
G1 X106.388 Y270.959 E50.72979
G1 X105.821 Y270.964 E50.75808
G1 X105.258 Y270.88 E50.78648
G1 X104.716 Y270.709 E50.81483
G1 X104.198 Y270.447 E50.84379
G1 X103.645 Y270.033 E50.87825
G1 X103.281 Y269.694 E50.90307
G1 X85.812 Y252.226 E52.13557
G1 X85.34 Y251.74 E52.16937
G1 X84.961 Y251.275 E52.1993
G1 X84.676 Y250.784 E52.22762
G1 X84.471 Y250.252 E52.25606
G1 X84.354 Y249.704 E52.28402
G1 X84.324 Y249.303 E52.30408
G1 X84.312 Y248.676 E52.33537
G1 X84.313 Y51.419 E62.17656
G1 X84.323 Y50.719 E62.21149
G1 X84.383 Y50.122 E62.24142
G1 X84.529 Y49.572 E62.26981
G1 X84.731 Y49.109 E62.29501
G0 F7500 X85.098 Y49.269
G1 F1500 X85.37 Y48.842 E62.32027
G1 X85.609 Y48.56 E62.33871
G1 X85.982 Y48.171 E62.3656
G1 X103.352 Y30.801 E63.59115
G1 X103.837 Y30.33 E63.62488
G1 X104.226 Y30.008 E63.65007
G1 X104.661 Y29.751 E63.67528
G1 X105.132 Y29.565 E63.70054
G1 X105.625 Y29.456 E63.72573
G1 X106.317 Y29.436 E63.76027
G1 X106.842 Y29.477 E63.78654
G1 X109.635 Y29.654 E63.92616
G1 X112.354 Y29.75 E64.0619
G1 X115.106 Y29.769 E64.1992
G1 X117.821 Y29.711 E64.33468
G1 X120.575 Y29.574 E64.47225
G1 X123.284 Y29.362 E64.60782
G1 X126.022 Y29.07 E64.74519
G1 X128.713 Y28.706 E64.88067
G1 X131.434 Y28.259 E65.01824
G1 X134.144 Y27.735 E65.15595
G1 X136.796 Y27.144 E65.2915
G1 X139.404 Y26.485 E65.4257
G1 X142.081 Y25.727 E65.56451
G1 X144.694 Y24.906 E65.70116
G1 X147.283 Y24.012 E65.83781
G1 X147.86 Y23.794 E65.86858
G1 X148.913 Y23.415 E65.92441
G1 X149.401 Y23.282 E65.94965
G1 X149.904 Y23.227 E65.97489
G1 X150.409 Y23.253 E66.00012
G1 X150.903 Y23.357 E66.02531
G1 X151.375 Y23.538 E66.05053
G1 X151.813 Y23.791 E66.07576
G1 X152.191 Y24.096 E66.09999
G1 X152.431 Y24.322 E66.11644
G1 X170.765 Y42.651 E67.40983
G1 X171.284 Y43.184 E67.44694
G1 X171.607 Y43.573 E67.47217
G1 X171.864 Y44.007 E67.49733
G1 X172.05 Y44.478 E67.5226
G1 X172.16 Y44.971 E67.5478
G1 X172.19 Y45.358 E67.56716
G1 X172.201 Y45.97 E67.5977
G1 X172.223 Y180.959 E74.33233
G1 X172.262 Y183.734 E74.47079
G1 X172.417 Y187.098 E74.6388
G1 X172.447 Y187.588 E74.66329
G1 X172.424 Y188.218 E74.69474
G1 X172.243 Y189.546 E74.76161
G1 X171.904 Y192.333 E74.90168
G1 X171.651 Y195.04 E75.03732
G1 X171.475 Y197.752 E75.1729
G1 X171.375 Y200.506 E75.31039
G1 X171.35 Y202.702 E75.41996
G1 X171.35 Y253.573 E77.95792
G1 X171.34 Y254.275 E77.99295
G1 X171.293 Y254.778 E78.01815
G1 X171.167 Y255.268 E78.04339
G1 X170.965 Y255.731 E78.0686
G1 X170.694 Y256.158 E78.09383
G1 X170.486 Y256.405 E78.10994
G1 X170.262 Y256.643 E78.12624
G1 X152.719 Y274.19 E79.36414
G1 X152.228 Y274.667 E79.39829
G1 X151.838 Y274.99 E79.42355
G1 X151.403 Y275.247 E79.44876
G1 X150.933 Y275.432 E79.47396
G1 X150.439 Y275.541 E79.4992
G1 X149.935 Y275.571 E79.52439
G1 X149.431 Y275.521 E79.54966
G1 X148.993 Y275.41 E79.5722
G1 X145.994 Y274.418 E79.72979
G1 X143.349 Y273.629 E79.8675
G1 X140.726 Y272.926 E80.00298
G1 X138.024 Y272.286 E80.14151
G1 X135.359 Y271.732 E80.27731
G1 X132.691 Y271.255 E80.41253
G1 X129.965 Y270.848 E80.55004
G1 X127.266 Y270.522 E80.68567
G1 X124.523 Y270.27 E80.82309
G1 X121.778 Y270.096 E80.96032
G1 X119.059 Y270 E81.09605
G1 X116.307 Y269.981 E81.23336
G1 X113.588 Y270.039 E81.36904
G1 X110.844 Y270.175 E81.5061
G1 X108.128 Y270.388 E81.64202
G1 X106.381 Y270.559 E81.7296
G1 X105.876 Y270.568 E81.7548
G1 X105.375 Y270.498 E81.78003
G1 X104.892 Y270.35 E81.80524
G1 X104.438 Y270.127 E81.83047
G1 X103.885 Y269.713 E81.86494
G1 X103.564 Y269.411 E81.88692
G1 X86.099 Y251.947 E83.11914
G1 X85.627 Y251.461 E83.15294
G1 X85.305 Y251.072 E83.17813
G1 X85.048 Y250.637 E83.20334
G1 X84.862 Y250.166 E83.2286
G1 X84.753 Y249.673 E83.25379
G1 X84.724 Y249.295 E83.27271
G1 X84.712 Y248.676 E83.30359
G1 X84.713 Y51.425 E93.14449
G1 X84.723 Y50.725 E93.17941
G1 X84.77 Y50.222 E93.20462
G1 X84.896 Y49.732 E93.22986
G1 X85.098 Y49.269 E93.25506
G1 F1500 E86.75506
G0 F7500 X106.063 Y31.692
G0 X131.199 Y45.494
G1 F1500 E93.25506
G1 X149.999 Y26.696 E94.58143
G1 X168.801 Y45.494 E95.90787
G1 X168.824 Y186.398 E102.9376
G1 X168.825 Y186.421 E102.93875
G1 X168.924 Y187.276 E102.98169
G1 X168.925 Y187.283 E102.98204
G1 X168.988 Y187.704 E103.00328
G1 X169.019 Y187.785 E103.00761
G1 X169.031 Y187.803 E103.00869
G1 X168.837 Y188.176 E103.02966
G1 X168.811 Y188.157 E103.03127
G1 X168.686 Y188.157 E103.03751
G1 X168.57 Y188.256 E103.04512
G1 X168.514 Y188.364 E103.05118
G1 X168.458 Y188.28 E103.05622
G1 X168.316 Y188.192 E103.06456
G1 X167.419 Y188.084 E103.10963
G1 X167.409 Y188.083 E103.11013
G1 X167.084 Y188.061 E103.12638
G1 X167.076 Y188.061 E103.12678
G1 X166.073 Y188.033 E103.17684
G1 X166.067 Y188.033 E103.17714
G1 X132.724 Y188.097 E104.84063
G1 X132.715 Y188.097 E104.84108
G1 X132.327 Y188.115 E104.86046
G1 X132.317 Y188.116 E104.86096
G1 X131.703 Y188.174 E104.89173
G1 X131.63 Y188.22 E104.89604
G1 X131.384 Y188.211 E104.90832
G1 X131.341 Y188.169 E104.91132
G1 X131.217 Y188.151 E104.91757
G1 X131.169 Y188.181 E104.92039
G1 X130.968 Y187.803 E104.94175
G1 X130.985 Y187.778 E104.94326
G1 X131.019 Y187.689 E104.94801
G1 X131.123 Y186.9 E104.98772
G1 X131.125 Y186.887 E104.98837
G1 X131.183 Y186.025 E105.03147
G1 X131.183 Y186.012 E105.03212
G1 X131.199 Y45.494 E112.04259
G0 F7500 X131.599 Y45.66
G1 F1500 X149.999 Y27.262 E113.34074
G1 X168.401 Y45.66 E114.63896
G1 X168.424 Y186.398 E121.66041
G1 X168.428 Y186.467 E121.66386
G1 X168.527 Y187.322 E121.7068
G1 X168.53 Y187.342 E121.70781
G1 X168.593 Y187.763 E121.72905
G1 X168.596 Y187.772 E121.72952
G1 X168.455 Y187.823 E121.737
G1 X168.449 Y187.828 E121.73739
G1 X168.364 Y187.795 E121.74194
G1 X167.467 Y187.687 E121.78701
G1 X167.436 Y187.684 E121.78857
G1 X167.111 Y187.662 E121.80482
G1 X167.087 Y187.661 E121.80602
G1 X166.084 Y187.633 E121.85608
G1 X166.066 Y187.633 E121.85697
G1 X132.723 Y187.697 E123.52047
G1 X132.696 Y187.698 E123.52181
G1 X132.308 Y187.716 E123.54119
G1 X132.28 Y187.718 E123.54259
G1 X131.666 Y187.776 E123.57336
G1 X131.525 Y187.816 E123.58067
G1 X131.511 Y187.815 E123.58137
G1 X131.465 Y187.787 E123.58406
G1 X131.406 Y187.776 E123.58705
G1 X131.416 Y187.741 E123.58887
G1 X131.52 Y186.952 E123.62857
G1 X131.524 Y186.914 E123.63048
G1 X131.582 Y186.052 E123.67358
G1 X131.583 Y186.012 E123.67558
G1 X131.599 Y45.66 E130.67777
G0 F7500 X131.999 Y45.826
G1 F1500 X149.999 Y27.828 E131.9477
G1 X168.001 Y45.826 E133.21769
G1 X168.024 Y186.398 E140.23086
G1 X168.031 Y186.513 E140.23661
G1 X168.13 Y187.364 E140.27935
G1 X167.515 Y187.29 E140.31025
G1 X167.463 Y187.285 E140.31286
G1 X167.138 Y187.263 E140.32911
G1 X167.098 Y187.261 E140.33111
G1 X166.095 Y187.233 E140.38117
G1 X166.065 Y187.233 E140.38267
G1 X132.722 Y187.297 E142.04616
G1 X132.678 Y187.298 E142.04835
G1 X132.29 Y187.316 E142.06773
G1 X132.242 Y187.319 E142.07013
G1 X131.87 Y187.354 E142.08877
G1 X131.916 Y187.005 E142.10633
G1 X131.923 Y186.941 E142.10955
G1 X131.981 Y186.079 E142.15265
G1 X131.983 Y186.012 E142.15599
G1 X131.999 Y45.826 E149.1499
G1 F1500 E142.6499
G0 F7500 X140.353 Y49.883
G1 F1500 E149.1499
G1 X140.132 Y50.318 E149.17424
G1 X140.108 Y50.371 E149.17715
G1 X139.825 Y51.019 E149.21242
G1 X139.801 Y51.079 E149.21565
G1 X139.638 Y51.53 E149.23957
G1 X139.617 Y51.593 E149.24289
G1 X139.498 Y52.006 E149.26433
G1 X139.486 Y52.051 E149.26665
G1 X139.306 Y52.807 E149.30542
G1 X139.294 Y52.868 E149.30853
G1 X139.179 Y53.532 E149.34215
G1 X139.17 Y53.592 E149.34517
G1 X139.129 Y53.959 E149.3636
G1 X139.124 Y54.022 E149.36675
G1 X139.078 Y54.97 E149.4141
G1 X139.077 Y55.046 E149.41789
G1 X139.087 Y55.403 E149.43571
G1 X139.09 Y55.451 E149.43811
G1 X139.155 Y56.303 E149.48074
G1 X139.161 Y56.364 E149.4838
G1 X139.245 Y56.97 E149.51432
G1 X139.256 Y57.032 E149.51746
G1 X139.331 Y57.401 E149.53625
G1 X139.344 Y57.457 E149.53912
G1 X139.517 Y58.114 E149.57301
G1 X139.535 Y58.175 E149.57618
G1 X139.752 Y58.826 E149.61042
G1 X139.777 Y58.891 E149.61389
G1 X139.942 Y59.291 E149.63548
G1 X139.96 Y59.334 E149.63781
G1 X140.294 Y60.047 E149.67709
G1 X140.319 Y60.095 E149.67979
G1 X140.52 Y60.47 E149.70101
G1 X140.552 Y60.526 E149.70423
G1 X140.953 Y61.171 E149.74212
G1 X140.994 Y61.233 E149.74583
G1 X141.4 Y61.789 E149.78018
G1 X141.444 Y61.844 E149.78369
G1 X141.787 Y62.25 E149.81021
G1 X141.831 Y62.299 E149.8135
G1 X142.077 Y62.554 E149.83117
G1 X142.124 Y62.6 E149.83445
G1 X142.674 Y63.1 E149.87154
G1 X142.717 Y63.136 E149.87433
G1 X143.521 Y63.789 E149.92601
G1 X143.571 Y63.827 E149.92914
G1 X143.992 Y64.127 E149.95493
G1 X144.048 Y64.165 E149.95831
G1 X144.615 Y64.514 E149.99153
G1 X144.668 Y64.544 E149.99457
G1 X145.041 Y64.743 E150.01566
G1 X145.084 Y64.765 E150.01807
G1 X145.685 Y65.05 E150.05125
G1 X145.733 Y65.071 E150.05387
G1 X146.101 Y65.222 E150.07371
G1 X146.152 Y65.241 E150.07643
G1 X147.015 Y65.542 E150.12202
G1 X147.065 Y65.558 E150.12464
G1 X147.389 Y65.652 E150.14147
G1 X147.427 Y65.662 E150.14344
G1 X147.829 Y65.762 E150.1641
G1 X147.87 Y65.772 E150.16621
G1 X148.434 Y65.887 E150.19492
G1 X148.571 Y65.905 E150.20182
G1 X149.362 Y65.955 E150.24136
G1 X149.423 Y65.957 E150.24441
G1 X150.055 Y65.958 E150.27594
G1 X150.114 Y65.956 E150.27888
G1 X151.211 Y65.893 E150.3337
G1 X151.321 Y65.881 E150.33922
G1 X152.128 Y65.744 E150.38006
G1 X152.192 Y65.731 E150.38332
G1 X152.782 Y65.591 E150.41357
G1 X152.839 Y65.576 E150.41651
G1 X153.181 Y65.473 E150.43433
G1 X153.228 Y65.457 E150.43681
G1 X153.946 Y65.202 E150.47482
G1 X153.998 Y65.182 E150.4776
G1 X154.327 Y65.044 E150.4954
G1 X154.371 Y65.025 E150.49779
G1 X155.004 Y64.723 E150.53278
G1 X155.05 Y64.699 E150.53537
G1 X155.45 Y64.482 E150.55807
G1 X155.505 Y64.45 E150.56125
G1 X155.975 Y64.155 E150.58893
G1 X156.033 Y64.115 E150.59245
G1 X156.621 Y63.685 E150.62879
G1 X156.67 Y63.647 E150.63188
G1 X157.384 Y63.054 E150.67819
G1 X157.439 Y63.005 E150.68186
