;FLAVOR:Marlin
;TIME:9640
;Filament used: 5.83337m
;Layer height: 0.2
;MINX:103.396
;MINY:108.732
;MINZ:0.3
;MAXX:196.697
;MAXY:191.171
;MAXZ:54.9
;Generated with Cura_SteamEngine 5.4.0
M140 S60
M105
M190 S60
M104 S200
M105
M109 S200
M82 ;absolute extrusion mode
G28 ;Home
G29 ;Auto level
M420 S1
G1 Z15.0 F2000 ;Move the platform
G92 E0
G92 E0
G1 F1500 E-6.5
;LAYER_COUNT:274
;LAYER:0
M107
M204 S1000
G0 F7500 X105.979 Y129.689 Z0.3
;TYPE:SKIRT
G1 F1500 E0
G1 X106.427 Y129.38 E0.02715
G1 X107.11 Y128.971 E0.06687
G1 X109.257 Y127.803 E0.18881
G1 X111.626 Y126.429 E0.32544
G1 X113.897 Y125.025 E0.45864
G1 X116.223 Y123.493 E0.5976
G1 X118.407 Y121.963 E0.73063
G1 X120.582 Y120.348 E0.86579
G1 X123.103 Y118.352 E1.02621
G1 X123.892 Y117.707 E1.07705
G1 X124.316 Y117.404 E1.10305
G1 X124.689 Y117.174 E1.12491
G1 X125.089 Y116.959 E1.14757
G1 X125.392 Y116.819 E1.16422
G1 X125.743 Y116.679 E1.18308
G1 X126.623 Y116.378 E1.22948
G1 X144.894 Y110.442 E2.18792
G1 X146.48 Y109.95 E2.27077
G1 X147.491 Y109.653 E2.32334
G1 X149.821 Y108.91 E2.44535
G1 X150.313 Y108.795 E2.47056
G1 X150.922 Y108.739 E2.50107
G1 X151.904 Y108.732 E2.55006
G1 X153.186 Y108.738 E2.61402
G1 X153.904 Y108.732 E2.64984
G1 X155.186 Y108.738 E2.7138
G1 X155.904 Y108.732 E2.74963
G1 X157.186 Y108.738 E2.81359
G1 X157.904 Y108.732 E2.84941
G1 X159.186 Y108.738 E2.91337
G1 X159.904 Y108.732 E2.94919
G1 X161.186 Y108.738 E3.01315
G1 X161.904 Y108.732 E3.04897
G1 X163.186 Y108.738 E3.11293
G1 X163.904 Y108.732 E3.14876
G1 X165.186 Y108.738 E3.21272
G1 X165.9 Y108.732 E3.24834
G1 X167.067 Y108.74 E3.30656
G1 X167.564 Y108.782 E3.33145
G1 X167.95 Y108.844 E3.35095
G1 X168.612 Y109.018 E3.3851
G1 X169.221 Y109.293 E3.41844
G1 X171.731 Y110.757 E3.5634
G1 X172.192 Y111.082 E3.59154
G1 X172.59 Y111.455 E3.61876
G1 X174.102 Y113.123 E3.73108
G1 X175.965 Y115.088 E3.86617
G1 X177.915 Y117.029 E4.00343
G1 X179.864 Y118.862 E4.13692
G1 X181.931 Y120.701 E4.27495
G1 X183.974 Y122.416 E4.40802
G1 X186.106 Y124.105 E4.54372
G1 X188.33 Y125.769 E4.6823
G1 X190.519 Y127.309 E4.81583
G1 X193.657 Y129.367 E5.00305
G1 X194.051 Y129.645 E5.0271
G1 X194.534 Y130.053 E5.05865
G1 X194.873 Y130.391 E5.08253
G1 X195.232 Y130.797 E5.10957
G1 X195.562 Y131.268 E5.13826
G1 X195.847 Y131.736 E5.1656
G1 X196.105 Y132.246 E5.19411
G1 X196.257 Y132.615 E5.21402
G1 X196.413 Y133.081 E5.23854
G1 X196.504 Y133.426 E5.25634
G1 X196.604 Y133.935 E5.28222
G1 X196.653 Y134.325 E5.30183
G1 X196.68 Y134.684 E5.31979
G1 X196.69 Y135.066 E5.33886
G1 X196.697 Y164.499 E6.80727
G1 X196.685 Y165.21 E6.84275
G1 X196.654 Y165.623 E6.86341
G1 X196.605 Y165.997 E6.88223
G1 X196.505 Y166.501 E6.90787
G1 X196.366 Y167.011 E6.93424
G1 X196.112 Y167.68 E6.96994
G1 X195.916 Y168.078 E6.99207
G1 X195.645 Y168.546 E7.01905
G1 X195.393 Y168.92 E7.04155
G1 X194.916 Y169.498 E7.07894
G1 X194.443 Y169.964 E7.11207
G1 X193.938 Y170.37 E7.1444
G1 X193.175 Y170.87 E7.18991
G1 X191.339 Y172.013 E7.2978
G1 X189.055 Y173.526 E7.43449
G1 X186.854 Y175.076 E7.56879
G1 X184.655 Y176.72 E7.70577
G1 X182.555 Y178.384 E7.83944
G1 X180.436 Y180.162 E7.97745
G1 X178.432 Y181.944 E8.11124
G1 X176.462 Y183.796 E8.24613
G1 X174.515 Y185.736 E8.38326
G1 X172.67 Y187.683 E8.51708
G1 X172.028 Y188.382 E8.56443
G1 X171.535 Y188.834 E8.5978
G1 X171.289 Y189.011 E8.61292
G1 X170.82 Y189.308 E8.64061
G1 X168.585 Y190.602 E8.76946
G1 X168.063 Y190.853 E8.79836
G1 X167.206 Y191.071 E8.84247
G1 X166.854 Y191.12 E8.8602
G1 X166.368 Y191.154 E8.88451
G1 X162.683 Y191.165 E9.06836
G1 X160.499 Y191.147 E9.17732
G1 X158.3 Y191.164 E9.28703
G1 X153.89 Y191.164 E9.50705
G1 X153.441 Y191.171 E9.52945
G1 X150.92 Y191.154 E9.65523
G1 X150.112 Y191.133 E9.69555
G1 X149.499 Y191.062 E9.72634
G1 X149.075 Y190.956 E9.74814
G1 X147.909 Y190.592 E9.80908
G1 X145.945 Y189.958 E9.91205
G1 X143.947 Y189.352 E10.01621
G1 X125.495 Y183.353 E10.98422
G1 X124.69 Y183.045 E11.02722
G1 X123.944 Y182.659 E11.06912
G1 X123.575 Y182.414 E11.09122
G1 X123.256 Y182.177 E11.11105
G1 X120.536 Y179.934 E11.28694
G1 X118.427 Y178.298 E11.4201
G1 X116.227 Y176.683 E11.55626
G1 X113.976 Y175.134 E11.69258
G1 X111.697 Y173.655 E11.82813
G1 X109.393 Y172.25 E11.96276
G1 X106.64 Y170.678 E12.12092
G1 X106.369 Y170.505 E12.13696
G1 X106.054 Y170.283 E12.15619
G1 X105.616 Y169.916 E12.1847
G1 X105.221 Y169.521 E12.21257
G1 X104.829 Y169.067 E12.24249
G1 X104.535 Y168.638 E12.26844
G1 X104.254 Y168.176 E12.29542
G1 X103.976 Y167.622 E12.32634
G1 X103.836 Y167.272 E12.34515
G1 X103.701 Y166.863 E12.36663
G1 X103.559 Y166.303 E12.39546
G1 X103.446 Y165.465 E12.43764
G1 X103.416 Y164.065 E12.50751
G1 X103.396 Y135.471 E13.93407
G1 X103.409 Y134.716 E13.97174
G1 X103.44 Y134.312 E13.99195
G1 X103.492 Y133.911 E14.01213
G1 X103.603 Y133.362 E14.04007
G1 X103.743 Y132.867 E14.06574
G1 X103.976 Y132.259 E14.09822
G1 X104.204 Y131.799 E14.12383
G1 X104.413 Y131.439 E14.1446
G1 X104.739 Y130.957 E14.17363
G1 X105.138 Y130.473 E14.20493
G1 X105.535 Y130.074 E14.23301
G1 X105.979 Y129.689 E14.26233
G0 F7500 X106.206 Y130.018
G1 F1500 X106.633 Y129.723 E14.28822
G1 X107.301 Y129.322 E14.32709
G1 X109.458 Y128.149 E14.44959
G1 X111.827 Y126.775 E14.58622
G1 X114.117 Y125.359 E14.72054
G1 X116.443 Y123.827 E14.8595
G1 X118.636 Y122.291 E14.99307
G1 X120.83 Y120.662 E15.1294
G1 X123.351 Y118.666 E15.28983
G1 X124.145 Y118.017 E15.34099
G1 X124.527 Y117.744 E15.36441
G1 X124.879 Y117.526 E15.38507
G1 X125.258 Y117.322 E15.40654
G1 X125.54 Y117.191 E15.42206
G1 X125.891 Y117.051 E15.44091
G1 X126.747 Y116.758 E15.48605
G1 X145.012 Y110.824 E16.44418
G1 X146.593 Y110.334 E16.52676
G1 X147.604 Y110.037 E16.57933
G1 X149.912 Y109.3 E16.7002
G1 X150.404 Y109.185 E16.72541
G1 X150.925 Y109.139 E16.7515
G1 X151.902 Y109.132 E16.80025
G1 X153.187 Y109.138 E16.86436
G1 X153.902 Y109.132 E16.90003
G1 X155.187 Y109.138 E16.96414
G1 X155.902 Y109.132 E16.99981
G1 X157.187 Y109.138 E17.06392
G1 X157.902 Y109.132 E17.09959
G1 X159.187 Y109.138 E17.1637
G1 X159.902 Y109.132 E17.19938
G1 X161.187 Y109.138 E17.26348
G1 X161.902 Y109.132 E17.29916
G1 X163.187 Y109.138 E17.36327
G1 X163.902 Y109.132 E17.39894
G1 X165.187 Y109.138 E17.46305
G1 X165.898 Y109.132 E17.49852
G1 X167.033 Y109.139 E17.55515
G1 X167.53 Y109.181 E17.58003
G1 X167.886 Y109.239 E17.59803
G1 X168.447 Y109.383 E17.62692
G1 X169.056 Y109.658 E17.66026
G1 X171.503 Y111.086 E17.80161
G1 X171.918 Y111.374 E17.82681
G1 X172.316 Y111.747 E17.85402
G1 X173.806 Y113.392 E17.96476
G1 X175.683 Y115.371 E18.10083
G1 X177.641 Y117.32 E18.23866
G1 X179.598 Y119.161 E18.37271
G1 X181.665 Y121 E18.51074
G1 X183.717 Y122.722 E18.64439
G1 X185.866 Y124.425 E18.78118
G1 X188.09 Y126.089 E18.91976
G1 X190.289 Y127.636 E19.0539
G1 X193.428 Y129.695 E19.24119
G1 X193.794 Y129.951 E19.26347
G1 X194.252 Y130.336 E19.29332
G1 X194.574 Y130.657 E19.316
G1 X194.904 Y131.027 E19.34074
G1 X195.234 Y131.498 E19.36943
G1 X195.505 Y131.944 E19.39547
G1 X195.748 Y132.426 E19.4224
G1 X195.887 Y132.766 E19.44072
G1 X196.026 Y133.183 E19.46265
G1 X196.117 Y133.528 E19.48045
G1 X196.207 Y133.986 E19.50374
G1 X196.254 Y134.355 E19.5223
G1 X196.28 Y134.695 E19.53931
G1 X196.29 Y135.066 E19.55783
G1 X196.297 Y164.493 E21.02594
G1 X196.286 Y165.18 E21.06022
G1 X196.257 Y165.571 E21.07978
G1 X196.208 Y165.945 E21.0986
G1 X196.119 Y166.397 E21.12159
G1 X195.992 Y166.87 E21.14602
G1 X195.753 Y167.503 E21.17978
G1 X195.557 Y167.901 E21.20191
G1 X195.313 Y168.322 E21.22619
G1 X195.061 Y168.696 E21.24869
G1 X194.634 Y169.214 E21.28218
G1 X194.192 Y169.652 E21.31322
G1 X193.687 Y170.058 E21.34555
G1 X192.964 Y170.53 E21.38863
G1 X191.128 Y171.673 E21.49652
G1 X188.834 Y173.193 E21.63382
G1 X186.614 Y174.756 E21.76927
G1 X184.415 Y176.4 E21.90625
G1 X182.307 Y178.07 E22.04042
G1 X180.17 Y179.863 E22.17959
G1 X178.166 Y181.645 E22.31338
G1 X176.188 Y183.505 E22.44884
G1 X174.233 Y185.453 E22.58653
G1 X172.375 Y187.412 E22.72123
G1 X171.733 Y188.111 E22.76858
G1 X171.301 Y188.509 E22.79789
G1 X171.055 Y188.686 E22.81301
G1 X170.62 Y188.962 E22.83871
G1 X168.412 Y190.241 E22.96601
G1 X167.923 Y190.476 E22.99308
G1 X167.15 Y190.675 E23.0329
G1 X166.825 Y190.721 E23.04928
G1 X166.367 Y190.754 E23.07219
G1 X162.686 Y190.765 E23.25584
G1 X160.499 Y190.747 E23.36495
G1 X158.297 Y190.764 E23.47481
G1 X153.884 Y190.764 E23.69498
G1 X153.444 Y190.771 E23.71693
G1 X150.93 Y190.754 E23.84236
G1 X150.155 Y190.735 E23.88103
G1 X149.596 Y190.674 E23.90909
G1 X149.194 Y190.574 E23.92976
G1 X148.032 Y190.211 E23.99049
G1 X146.068 Y189.577 E24.09345
G1 X144.071 Y188.972 E24.19756
G1 X125.638 Y182.979 E25.16457
G1 X124.833 Y182.671 E25.20757
G1 X124.165 Y182.325 E25.2451
G1 X123.813 Y182.092 E25.26616
G1 X123.51 Y181.868 E25.28496
G1 X120.79 Y179.625 E25.46085
G1 X118.664 Y177.975 E25.59511
G1 X116.464 Y176.361 E25.73124
G1 X114.194 Y174.798 E25.86874
G1 X111.915 Y173.319 E26.00428
G1 X109.601 Y171.909 E26.13947
G1 X106.855 Y170.341 E26.29723
G1 X106.599 Y170.178 E26.31237
G1 X106.311 Y169.976 E26.32992
G1 X105.873 Y169.609 E26.35843
G1 X105.523 Y169.258 E26.38316
G1 X105.159 Y168.84 E26.41082
G1 X104.877 Y168.43 E26.43564
G1 X104.596 Y167.968 E26.46262
G1 X104.347 Y167.472 E26.49031
G1 X104.216 Y167.147 E26.50779
G1 X104.081 Y166.738 E26.52928
G1 X103.955 Y166.249 E26.55447
G1 X103.846 Y165.456 E26.59441
G1 X103.816 Y164.065 E26.66382
G1 X103.796 Y135.478 E28.09003
G1 X103.808 Y134.746 E28.12656
G1 X103.837 Y134.363 E28.14572
G1 X103.889 Y133.962 E28.16589
G1 X103.988 Y133.47 E28.19093
G1 X104.117 Y133.009 E28.21481
G1 X104.335 Y132.436 E28.2454
G1 X104.55 Y132 E28.26965
G1 X104.759 Y131.64 E28.29042
G1 X105.048 Y131.211 E28.31623
G1 X105.447 Y130.727 E28.34752
G1 X105.798 Y130.375 E28.37232
G1 X106.206 Y130.018 E28.39937
G0 F7500 X106.434 Y130.347
G1 F1500 X106.839 Y130.066 E28.42396
G1 X107.492 Y129.673 E28.46198
G1 X109.659 Y128.495 E28.58504
G1 X112.028 Y127.121 E28.72167
G1 X114.337 Y125.693 E28.85711
G1 X116.663 Y124.161 E28.99607
G1 X118.865 Y122.619 E29.13019
G1 X121.078 Y120.976 E29.26769
G1 X123.599 Y118.98 E29.42812
G1 X124.398 Y118.327 E29.4796
G1 X124.738 Y118.084 E29.50045
G1 X125.09 Y117.866 E29.5211
G1 X125.427 Y117.685 E29.54019
G1 X125.709 Y117.554 E29.5557
G1 X126.02 Y117.429 E29.57242
G1 X126.871 Y117.138 E29.61729
G1 X145.13 Y111.206 E30.57511
G1 X146.706 Y110.718 E30.65742
G1 X147.717 Y110.421 E30.70999
G1 X150.003 Y109.69 E30.82973
G1 X150.495 Y109.575 E30.85493
G1 X150.957 Y109.538 E30.87806
G1 X151.9 Y109.532 E30.9251
G1 X153.188 Y109.538 E30.98936
G1 X153.9 Y109.532 E31.02489
G1 X155.188 Y109.538 E31.08915
G1 X155.9 Y109.532 E31.12467
G1 X157.188 Y109.538 E31.18893
G1 X157.9 Y109.532 E31.22445
G1 X159.188 Y109.538 E31.28871
G1 X159.9 Y109.532 E31.32423
G1 X161.188 Y109.538 E31.38849
G1 X161.9 Y109.532 E31.42402
G1 X163.188 Y109.538 E31.48827
G1 X163.9 Y109.532 E31.5238
G1 X165.188 Y109.538 E31.58806
G1 X165.896 Y109.532 E31.62338
G1 X166.999 Y109.538 E31.67841
G1 X167.496 Y109.58 E31.70329
G1 X167.791 Y109.628 E31.71821
G1 X168.282 Y109.748 E31.74342
G1 X168.891 Y110.023 E31.77676
G1 X171.275 Y111.415 E31.91449
G1 X171.69 Y111.703 E31.93969
G1 X172.02 Y112.016 E31.96238
G1 X173.51 Y113.661 E32.07311
G1 X175.401 Y115.654 E32.21018
G1 X177.367 Y117.611 E32.34857
G1 X179.332 Y119.46 E32.48318
G1 X181.399 Y121.299 E32.62121
G1 X183.469 Y123.036 E32.75603
G1 X185.626 Y124.745 E32.89332
G1 X187.85 Y126.409 E33.0319
G1 X190.059 Y127.963 E33.16665
G1 X193.2 Y130.023 E33.35405
G1 X193.538 Y130.258 E33.37458
G1 X193.97 Y130.619 E33.40267
G1 X194.275 Y130.923 E33.42416
G1 X194.605 Y131.293 E33.44889
G1 X194.892 Y131.706 E33.47398
G1 X195.163 Y132.152 E33.50002
G1 X195.391 Y132.606 E33.52536
G1 X195.508 Y132.893 E33.54083
G1 X195.639 Y133.285 E33.56145
G1 X195.73 Y133.63 E33.57925
G1 X195.81 Y134.037 E33.59994
G1 X195.855 Y134.386 E33.6175
G1 X195.88 Y134.706 E33.63351
G1 X195.89 Y135.066 E33.65148
G1 X195.897 Y164.487 E35.1193
G1 X195.887 Y165.151 E35.15243
G1 X195.86 Y165.519 E35.17084
G1 X195.811 Y165.893 E35.18966
G1 X195.732 Y166.295 E35.2101
G1 X195.617 Y166.73 E35.23254
G1 X195.394 Y167.326 E35.26429
G1 X195.198 Y167.724 E35.28642
G1 X194.981 Y168.098 E35.308
G1 X194.729 Y168.472 E35.3305
G1 X194.326 Y168.959 E35.36203
G1 X193.941 Y169.34 E35.38906
G1 X193.436 Y169.746 E35.42138
G1 X192.753 Y170.19 E35.46203
G1 X190.917 Y171.333 E35.56992
G1 X188.613 Y172.86 E35.70782
G1 X186.374 Y174.436 E35.84443
G1 X184.175 Y176.08 E35.9814
G1 X182.059 Y177.756 E36.11608
G1 X179.904 Y179.564 E36.25642
G1 X177.9 Y181.346 E36.39021
G1 X175.914 Y183.214 E36.52623
G1 X173.951 Y185.17 E36.66448
G1 X172.08 Y187.141 E36.80007
G1 X171.438 Y187.84 E36.84742
G1 X171.067 Y188.184 E36.87266
G1 X170.821 Y188.361 E36.88778
G1 X170.419 Y188.616 E36.91153
G1 X168.239 Y189.88 E37.03725
G1 X167.783 Y190.099 E37.06249
G1 X167.093 Y190.279 E37.09806
G1 X166.796 Y190.322 E37.11304
G1 X166.338 Y190.355 E37.13594
G1 X163.744 Y190.356 E37.26536
G1 X162.689 Y190.365 E37.318
G1 X160.499 Y190.347 E37.42726
G1 X158.294 Y190.364 E37.53727
G1 X153.877 Y190.364 E37.75763
G1 X153.447 Y190.371 E37.77909
G1 X150.939 Y190.354 E37.90422
G1 X150.195 Y190.337 E37.94135
G1 X149.692 Y190.286 E37.96657
G1 X149.313 Y190.192 E37.98605
G1 X148.155 Y189.83 E38.04658
G1 X146.191 Y189.196 E38.14954
G1 X144.195 Y188.592 E38.25358
G1 X125.78 Y182.605 E39.21965
G1 X125.016 Y182.315 E39.26042
G1 X124.386 Y181.991 E39.29576
G1 X124.034 Y181.758 E39.31682
G1 X123.764 Y181.559 E39.33355
G1 X121.044 Y179.316 E39.50944
G1 X118.901 Y177.652 E39.64481
G1 X116.701 Y176.039 E39.7809
G1 X114.412 Y174.462 E39.91958
G1 X112.133 Y172.983 E40.05513
G1 X109.809 Y171.568 E40.19087
G1 X107.069 Y170.003 E40.3483
G1 X106.828 Y169.85 E40.36254
G1 X106.568 Y169.669 E40.37834
G1 X106.13 Y169.302 E40.40685
G1 X105.823 Y168.994 E40.42855
G1 X105.488 Y168.613 E40.45386
G1 X105.218 Y168.222 E40.47757
G1 X104.953 Y167.788 E40.50294
G1 X104.718 Y167.322 E40.52897
G1 X104.596 Y167.021 E40.54518
G1 X104.468 Y166.636 E40.56542
G1 X104.351 Y166.193 E40.58828
G1 X104.246 Y165.447 E40.62586
G1 X104.216 Y164.065 E40.69483
G1 X104.196 Y135.484 E42.12074
G1 X104.207 Y134.776 E42.15607
G1 X104.234 Y134.414 E42.17418
G1 X104.286 Y134.013 E42.19435
G1 X104.374 Y133.576 E42.21659
G1 X104.491 Y133.151 E42.23858
G1 X104.709 Y132.578 E42.26917
G1 X104.896 Y132.201 E42.29016
G1 X105.105 Y131.841 E42.31093
G1 X105.357 Y131.465 E42.33351
G1 X105.756 Y130.981 E42.36481
G1 X106.063 Y130.675 E42.38643
G1 X106.434 Y130.347 E42.41114
G1 F1500 E35.91114
;MESH:GRIP v19_BASE v19_arm right v1_2_Cuerpo1.stl
G0 F7500 X106.815 Y134.226
G0 X107.862 Y134.511
G0 X108.596 Y162.564
G0 X111.81 Y162.933
;TYPE:WALL-INNER
G1 F1500 E42.41114
G1 X111.792 Y136.991 E43.70539
G1 X111.581 Y137.159 E43.71885
G1 X111.363 Y137.293 E43.73161
G1 X110.967 Y137.468 E43.75321
G1 X110.54 Y137.578 E43.77521
G1 X110.096 Y137.613 E43.79743
G1 X109.659 Y137.58 E43.81929
G1 X109.241 Y137.477 E43.84077
G1 X108.727 Y137.249 E43.86883
G1 X108.398 Y136.993 E43.88962
G1 X108.416 Y162.927 E45.18348
G1 X108.72 Y162.701 E45.20237
G1 X109.124 Y162.497 E45.22495
G1 X109.566 Y162.365 E45.24797
G1 X110.008 Y162.31 E45.27019
G1 X110.442 Y162.331 E45.29187
G1 X110.871 Y162.418 E45.31371
G1 X111.27 Y162.577 E45.33513
G1 X111.49 Y162.697 E45.34764
G1 X111.81 Y162.933 E45.36747
G0 F7500 X111.972 Y163.314
G0 X112.211 Y164.109
G1 F1500 X112.191 Y135.777 E46.78096
G1 X112.022 Y136.125 E46.80026
G1 X111.723 Y136.534 E46.82554
G1 X111.27 Y136.896 E46.85447
G1 X110.877 Y137.07 E46.87591
G1 X110.481 Y137.182 E46.89644
G1 X110.096 Y137.213 E46.91571
G1 X109.675 Y137.171 E46.93682
G1 X109.369 Y137.096 E46.95254
G1 X108.932 Y136.902 E46.97639
G1 X108.563 Y136.615 E46.99972
G1 X108.241 Y136.26 E47.02363
G1 X107.998 Y135.799 E47.04963
G1 X108.018 Y164.15 E48.46406
G1 X108.141 Y163.867 E48.47946
G1 X108.375 Y163.525 E48.50013
G1 X108.675 Y163.23 E48.52112
G1 X108.978 Y163.019 E48.53955
G1 X109.272 Y162.87 E48.55599
G1 X109.655 Y162.756 E48.57593
G1 X110.074 Y162.714 E48.59693
G1 X110.436 Y162.738 E48.61503
G1 X110.756 Y162.803 E48.63132
